X: 6
T: Maudabawn Chapel
R: reel
M: 4/4
L: 1/8
K: Gmaj
|:"1"G2FG EB,DB,|G,A,B,D EB,DB,|G,A,B,D GABd|gabg eaaf|
|1 gabg efge|dfed Bc d2|(3efg fa gbec|dBAF GEEF:|
|2 ~g3 a (3bag (3agf |gfed eage|dfe=c BdcB|A=cBA GEED|]
|:(3EEE BE eEBE|"2"(3EEE BE ADFD|(3EEE BE eEBE|(3ABA FD A,DFD|
(3EEE BE eEBE|BA^GA Bcde|"3"fggf gfec|1 dBAF GEED:|2 dBAF GEEF||
P:Variations
"1"(3GFE FD EB,DB, |"2" GABG ADFD | "3" [d2f2]fg gfec |


Tune 302	Setting 13063

